X:220
T:Mulvahill's
R:reel
Z:Transcribed by Dave Marshall
M:C|
K:D
|: A~F3 G2FG | ADFD EGFE | DEFA dfec | dBAF E2FG |
A~F3 G2FG | ADFD EGFE | DEFA dfec | dBAF D4 :|
|: ~f3a g2fg | afdf edBd | ~f3e dfec | dBAF E4 |
a~f3 b~f3 | afdf edBd | ~f3e dfec | dBAF D4 :|
